!!!COM: Music21
!!!OTL: march_An-Droichead
!!!OMV: march_An-Droichead
**kern
*clefG2
*k[f#]
*G:
*M4/4
=1
4b
[4dd
2dd]
=
2.a
8gL
8f#J
=
2.g
4f#
=
1g
=
8ee
[4.gg
2gg]
=
2.dd
4ee
=
2.cc
4b
=
2cc
8bL
8aJ
4g
=
2a
2dd
=
2dd
8ddL
8eeJ
4ff#
=
2gg
2g
!!linebreak:original
=
2.ee
4dd
=
2.cc
4a
=
2dd
4b
4a
=
2g
8gL
8aJ
8bL
8gJ
=
1a
=||
*M4/4
4b
[4dd
2dd]
=
2.a
8gL
8f#J
=
2.g
4f#
=
1g
=
8ee
[4.gg
2gg]
!!linebreak:original
=
2.dd
4ee
=
2.cc
4b
=
2cc
8bL
8aJ
4g
=
2a
2dd
=
2dd
8ddL
8eeJ
4ff#
=
2gg
2g
=
2.ee
4dd
=
2.cc
4a
=
2dd
4b
4a
=
2.g
4f#
=
[1g
=
1g]
!!linebreak:original
=||
2a
2dd
=
2dd
4ee
4dd
=
2cc
4b
4g
=
2.a
4g
=
2a
2dd
=
2dd
8ddL
8eeJ
4ff#
=
2.gg
4ff#
=
1gg
=
2a
2dd
=
2dd
8ff#L
8ggJ
4aa
=
2bb
4aa
4ff#
!!linebreak:original
=
2gg
4b
4dd
=
2cc
4b
4g
=
2a
4b
4dd
=
2cc
4b
4g
=
[1a
=
1a]
=||
*-
